icons/badge/info/circle.svg

<svg width="32" height="32" viewBox="0 0 32 32" xmlns="http://www.w3.org/2000/svg"><path fill-rule="evenodd" clip-rule="evenodd" d="M4 16C4 9.37261 9.37258 4.00003 16 4.00003C22.6274 4.00003 28 9.37261 28 16C28 22.6274 22.6274 28 16 28C9.37258 28 4 22.6274 4 16ZM16 2.00003C8.26801 2.00003 2 8.26804 2 16C2 23.732 8.26801 30 16 30C23.732 30 30 23.732 30 16C30 8.26804 23.732 2.00003 16 2.00003ZM13 21V23H19V21H17V16V15H16H14V17H15V21H13ZM17.5 12V9H14.5V12H17.5Z"/></svg>

<svg viewBox="0 0 32 32" xmlns="http://www.w3.org/2000/svg"><path fill-rule="evenodd" d="M4 16C4 9.373 9.373 4 16 4s12 5.373 12 12-5.373 12-12 12S4 22.627 4 16zM16 2C8.268 2 2 8.268 2 16s6.268 14 14 14 14-6.268 14-14S23.732 2 16 2zm-3 19v2h6v-2h-2v-6h-3v2h1v4h-2zm4.5-9V9h-3v3h3z"/></svg>
